backend/metamodel/syson-sysml-metamodel-edit/src/main/resources/icons/full/obj16/PortDefinition.svg

<?xml version="1.0" encoding="UTF-8" standalone="no"?>
<svg
   width="18"
   height="16"
   viewBox="0 0 4.7624999 4.2333332"
   version="1.1"
   id="svg8"
   inkscape:version="1.2.2 (b0a8486541, 2022-12-01)"
   sodipodi:docname="Component.svg"
   xmlns:inkscape="http://www.inkscape.org/namespaces/inkscape"
   xmlns:sodipodi="http://sodipodi.sourceforge.net/DTD/sodipodi-0.dtd"
   xmlns:xlink="http://www.w3.org/1999/xlink"
   xmlns="http://www.w3.org/2000/svg"
   xmlns:svg="http://www.w3.org/2000/svg"
   xmlns:rdf="http://www.w3.org/1999/02/22-rdf-syntax-ns#"
   xmlns:cc="http://creativecommons.org/ns#"
   xmlns:dc="http://purl.org/dc/elements/1.1/">
  <defs
     id="defs2">
    <linearGradient
       inkscape:collect="always"
       id="linearGradient2337">
      <stop
         style="stop-color:#e8e9f0;stop-opacity:1;"
         offset="0"
         id="stop2333" />
      <stop
         style="stop-color:#fdfeff;stop-opacity:1"
         offset="1"
         id="stop2335" />
    </linearGradient>
    <linearGradient
       inkscape:collect="always"
       id="linearGradient939">
      <stop
         style="stop-color:#e8e9f0;stop-opacity:1;"
         offset="0"
         id="stop935" />
      <stop
         style="stop-color:#fdfeff;stop-opacity:1"
         offset="1"
         id="stop937" />
    </linearGradient>
    <linearGradient
       inkscape:collect="always"
       id="linearGradient872">
      <stop
         style="stop-color:#e8e9f0;stop-opacity:1;"
         offset="0"
         id="stop868" />
      <stop
         style="stop-color:#fdfeff;stop-opacity:1"
         offset="1"
         id="stop870" />
    </linearGradient>
    <linearGradient
       inkscape:collect="always"
       xlink:href="#linearGradient872"
       id="linearGradient874"
       x1="144.28606"
       y1="144.28606"
       x2="23.45978"
       y2="3.8806121"
       gradientUnits="userSpaceOnUse"
       gradientTransform="matrix(0.03482146,0,0,0.02814913,1.1883999,0.89374863)" />
    <linearGradient
       inkscape:collect="always"
       xlink:href="#linearGradient939"
       id="linearGradient874-3-9"
       x1="144.28606"
       y1="144.28606"
       x2="23.45978"
       y2="3.8806121"
       gradientUnits="userSpaceOnUse"
       gradientTransform="matrix(0.02033429,0,0,0.00562037,0.17274477,1.6769593)" />
    <linearGradient
       inkscape:collect="always"
       xlink:href="#linearGradient2337"
       id="linearGradient874-3-9-0"
       x1="144.28606"
       y1="144.28606"
       x2="23.45978"
       y2="3.8806121"
       gradientUnits="userSpaceOnUse"
       gradientTransform="matrix(0.02033429,0,0,0.00562037,0.17808841,3.1780907)" />
  </defs>
  <sodipodi:namedview
     id="base"
     pagecolor="#ffffff"
     bordercolor="#666666"
     borderopacity="1.0"
     inkscape:pageopacity="0"
     inkscape:pageshadow="2"
     inkscape:zoom="43.542474"
     inkscape:cx="6.5223671"
     inkscape:cy="5.9711812"
     inkscape:document-units="mm"
     inkscape:current-layer="g965"
     inkscape:document-rotation="0"
     showgrid="false"
     inkscape:pagecheckerboard="false"
     inkscape:window-width="1665"
     inkscape:window-height="749"
     inkscape:window-x="1920"
     inkscape:window-y="441"
     inkscape:window-maximized="0"
     units="px"
     inkscape:snap-global="false"
     inkscape:showpageshadow="2"
     inkscape:deskcolor="#d1d1d1" />
  <metadata
     id="metadata5">
    <rdf:RDF>
      <cc:Work
         rdf:about="">
        <dc:format>image/svg+xml</dc:format>
        <dc:type
           rdf:resource="http://purl.org/dc/dcmitype/StillImage" />
        <dc:title />
      </cc:Work>
    </rdf:RDF>
  </metadata>
  <g
     inkscape:label="Calque 1"
     inkscape:groupmode="layer"
     id="layer1">
    <g
       id="g882">
      <g
         id="g851"
         transform="matrix(0.76362522,0,0,0.76362522,-0.23782217,-0.15780292)">
        <g
           id="g965">
          <path
             style="color:#000000;font-style:normal;font-variant:normal;font-weight:normal;font-stretch:normal;font-size:medium;line-height:normal;font-family:sans-serif;font-variant-ligatures:normal;font-variant-position:normal;font-variant-caps:normal;font-variant-numeric:normal;font-variant-alternates:normal;font-variant-east-asian:normal;font-feature-settings:normal;font-variation-settings:normal;text-indent:0;text-align:start;text-decoration:none;text-decoration-line:none;text-decoration-style:solid;text-decoration-color:#000000;letter-spacing:normal;word-spacing:normal;text-transform:none;writing-mode:lr-tb;direction:ltr;text-orientation:mixed;dominant-baseline:auto;baseline-shift:baseline;text-anchor:start;white-space:normal;shape-padding:0;shape-margin:0;inline-size:0;clip-rule:nonzero;display:inline;overflow:visible;visibility:visible;isolation:auto;mix-blend-mode:normal;color-interpolation:sRGB;color-interpolation-filters:linearRGB;solid-color:#000000;solid-opacity:1;vector-effect:none;fill:url(#linearGradient874);fill-opacity:1;fill-rule:nonzero;stroke:none;stroke-width:0.258315;stroke-linecap:butt;stroke-linejoin:bevel;stroke-miterlimit:4;stroke-dasharray:none;stroke-dashoffset:0;stroke-opacity:1;color-rendering:auto;image-rendering:auto;shape-rendering:auto;text-rendering:auto;enable-background:accumulate;stop-color:#000000;stop-opacity:1"
             d="M 2.0053036,1.0029846 H 6.212651 V 4.955277 H 2.0053036 Z"
             id="path967" />
          <path
             style="color:#000000;font-style:normal;font-variant:normal;font-weight:normal;font-stretch:normal;font-size:medium;line-height:normal;font-family:sans-serif;font-variant-ligatures:normal;font-variant-position:normal;font-variant-caps:normal;font-variant-numeric:normal;font-variant-alternates:normal;font-variant-east-asian:normal;font-feature-settings:normal;font-variation-settings:normal;text-indent:0;text-align:start;text-decoration:none;text-decoration-line:none;text-decoration-style:solid;text-decoration-color:#000000;letter-spacing:normal;word-spacing:normal;text-transform:none;writing-mode:lr-tb;direction:ltr;text-orientation:mixed;dominant-baseline:auto;baseline-shift:baseline;text-anchor:start;white-space:normal;shape-padding:0;shape-margin:0;inline-size:0;clip-rule:nonzero;display:inline;overflow:visible;visibility:visible;isolation:auto;mix-blend-mode:normal;color-interpolation:sRGB;color-interpolation-filters:linearRGB;solid-color:#000000;solid-opacity:1;vector-effect:none;fill:#4e4184;fill-opacity:1;fill-rule:nonzero;stroke:none;stroke-width:0.258315;stroke-linecap:butt;stroke-linejoin:bevel;stroke-miterlimit:4;stroke-dasharray:none;stroke-dashoffset:0;stroke-opacity:1;color-rendering:auto;image-rendering:auto;shape-rendering:auto;text-rendering:auto;enable-background:accumulate;stop-color:#000000;stop-opacity:1"
             d="M 2.0927679,0.87304688 1.9788718,1.1031033 V 4.870057 L 2.1637591,5.0839842 H 6.2128906 L 6.3417969,4.9550781 V 1.0039062 L 6.2128906,0.87304688 Z M 2.1347656,1.1328125 H 6.0839844 V 4.8261719 H 2.1347656 Z"
             id="path969"
             sodipodi:nodetypes="cccccccccccccc" />
        </g>
        <path
           id="rect881-5-7"
           style="fill:url(#linearGradient874-3-9);fill-opacity:1;stroke:#4e4184;stroke-width:0.264009;stroke-linejoin:bevel;stroke-miterlimit:4;stroke-dasharray:none;stroke-dashoffset:0;stroke-opacity:1"
           d="M 0.64978242,1.6987696 H 3.1066985 V 2.4878992 H 0.64978242 Z" />
        <path
           id="rect881-5-7-6"
           style="fill:url(#linearGradient874-3-9-0);fill-opacity:1;stroke:#4e4184;stroke-width:0.264009;stroke-linejoin:bevel;stroke-miterlimit:4;stroke-dasharray:none;stroke-dashoffset:0;stroke-opacity:1"
           d="M 0.65512601,3.199901 H 3.1120422 V 3.9890306 H 0.65512601 Z" />
      </g>
    </g>
  </g>
</svg>

<svg xmlns="http://www.w3.org/2000/svg" xmlns:xlink="http://www.w3.org/1999/xlink" width="18" height="16" viewBox="0 0 4.762 4.233"><defs><linearGradient id="c"><stop offset="0" style="stop-color:#e8e9f0;stop-opacity:1"/><stop offset="1" style="stop-color:#fdfeff;stop-opacity:1"/></linearGradient><linearGradient id="b"><stop offset="0" style="stop-color:#e8e9f0;stop-opacity:1"/><stop offset="1" style="stop-color:#fdfeff;stop-opacity:1"/></linearGradient><linearGradient id="a"><stop offset="0" style="stop-color:#e8e9f0;stop-opacity:1"/><stop offset="1" style="stop-color:#fdfeff;stop-opacity:1"/></linearGradient><linearGradient xlink:href="#a" id="d" x1="144.286" x2="23.46" y1="144.286" y2="3.881" gradientTransform="matrix(.03482 0 0 .02815 1.188 .894)" gradientUnits="userSpaceOnUse"/><linearGradient xlink:href="#b" id="e" x1="144.286" x2="23.46" y1="144.286" y2="3.881" gradientTransform="matrix(.02033 0 0 .00562 .173 1.677)" gradientUnits="userSpaceOnUse"/><linearGradient xlink:href="#c" id="f" x1="144.286" x2="23.46" y1="144.286" y2="3.881" gradientTransform="matrix(.02033 0 0 .00562 .178 3.178)" gradientUnits="userSpaceOnUse"/></defs><path d="M2.005 1.003h4.208v3.952H2.005Z" style="color:#000;font-style:normal;font-variant:normal;font-weight:400;font-stretch:normal;font-size:medium;line-height:normal;font-family:sans-serif;font-variant-ligatures:normal;font-variant-position:normal;font-variant-caps:normal;font-variant-numeric:normal;font-variant-alternates:normal;font-variant-east-asian:normal;font-feature-settings:normal;font-variation-settings:normal;text-indent:0;text-align:start;text-decoration:none;text-decoration-line:none;text-decoration-style:solid;text-decoration-color:#000;letter-spacing:normal;word-spacing:normal;text-transform:none;writing-mode:lr-tb;direction:ltr;text-orientation:mixed;dominant-baseline:auto;baseline-shift:baseline;text-anchor:start;white-space:normal;shape-padding:0;shape-margin:0;inline-size:0;clip-rule:nonzero;display:inline;overflow:visible;visibility:visible;isolation:auto;mix-blend-mode:normal;color-interpolation:sRGB;color-interpolation-filters:linearRGB;solid-color:#000;solid-opacity:1;vector-effect:none;fill:url(#d);fill-opacity:1;fill-rule:nonzero;stroke:none;stroke-width:.258315;stroke-linecap:butt;stroke-linejoin:bevel;stroke-miterlimit:4;stroke-dasharray:none;stroke-dashoffset:0;stroke-opacity:1;color-rendering:auto;image-rendering:auto;shape-rendering:auto;text-rendering:auto;enable-background:accumulate;stop-color:#000;stop-opacity:1" transform="translate(-.238 -.158) scale(.76363)"/><path d="m2.093.873-.114.23V4.87l.185.214h4.049l.129-.129V1.004l-.13-.131Zm.042.26h3.949v3.693h-3.95Z" style="color:#000;font-style:normal;font-variant:normal;font-weight:400;font-stretch:normal;font-size:medium;line-height:normal;font-family:sans-serif;font-variant-ligatures:normal;font-variant-position:normal;font-variant-caps:normal;font-variant-numeric:normal;font-variant-alternates:normal;font-variant-east-asian:normal;font-feature-settings:normal;font-variation-settings:normal;text-indent:0;text-align:start;text-decoration:none;text-decoration-line:none;text-decoration-style:solid;text-decoration-color:#000;letter-spacing:normal;word-spacing:normal;text-transform:none;writing-mode:lr-tb;direction:ltr;text-orientation:mixed;dominant-baseline:auto;baseline-shift:baseline;text-anchor:start;white-space:normal;shape-padding:0;shape-margin:0;inline-size:0;clip-rule:nonzero;display:inline;overflow:visible;visibility:visible;isolation:auto;mix-blend-mode:normal;color-interpolation:sRGB;color-interpolation-filters:linearRGB;solid-color:#000;solid-opacity:1;vector-effect:none;fill:#4e4184;fill-opacity:1;fill-rule:nonzero;stroke:none;stroke-width:.258315;stroke-linecap:butt;stroke-linejoin:bevel;stroke-miterlimit:4;stroke-dasharray:none;stroke-dashoffset:0;stroke-opacity:1;color-rendering:auto;image-rendering:auto;shape-rendering:auto;text-rendering:auto;enable-background:accumulate;stop-color:#000;stop-opacity:1" transform="translate(-.238 -.158) scale(.76363)"/><path d="M.65 1.699h2.457v.789H.65Z" style="fill:url(#e);fill-opacity:1;stroke:#4e4184;stroke-width:.264009;stroke-linejoin:bevel;stroke-miterlimit:4;stroke-dasharray:none;stroke-dashoffset:0;stroke-opacity:1" transform="translate(-.238 -.158) scale(.76363)"/><path d="M.655 3.2h2.457v.789H.655Z" style="fill:url(#f);fill-opacity:1;stroke:#4e4184;stroke-width:.264009;stroke-linejoin:bevel;stroke-miterlimit:4;stroke-dasharray:none;stroke-dashoffset:0;stroke-opacity:1" transform="translate(-.238 -.158) scale(.76363)"/></svg>
